Simply-Black-Circles/scalable/apps/viewnior.svg

<svg xmlns="http://www.w3.org/2000/svg" width="48" height="48" viewBox="0 0 12.7 12.7"><path fill="#1a1a1a" d="M6.344.073a6.29 6.29 0 0 0-6.29 6.29 6.29 6.29 0 0 0 6.29 6.288 6.29 6.29 0 0 0 6.29-6.289 6.29 6.29 0 0 0-6.29-6.29zm-.018.936a5.407 5.407 0 0 1 5.407 5.407 5.407 5.407 0 0 1-5.407 5.407A5.407 5.407 0 0 1 .92 6.416 5.407 5.407 0 0 1 6.326 1.01zM3.12 2.81v.001c-.212 0-.36.002-.378.004-.038.007-.05.016-.05.041 0 .036 2.256 8.025 2.279 8.069.013.025.088.026 1.323.023l1.31-.003.345-1.153a.55.55 0 0 1-.177-.688.55.55 0 0 1 .175-.894v-.016a.55.55 0 0 1 .412-.532.554.554 0 0 1 .296-.222l.163-.543c1.166-3.888 1.212-4.048 1.184-4.068-.024-.018-.209-.02-1.139-.017-.61.001-1.115.01-1.12.014-.006.005-.33 1.21-.72 2.68-.39 1.467-.712 2.674-.716 2.677-.004.004-.012-.013-.018-.037L5.634 5.47c-.354-1.447-.65-2.64-.656-2.644-.01-.012-1.222-.018-1.858-.017z"/></svg>

<?xml version="1.0" encoding="UTF-8" standalone="no"?>
<svg
   xmlns:dc="http://purl.org/dc/elements/1.1/"
   xmlns:cc="http://creativecommons.org/ns#"
   xmlns:rdf="http://www.w3.org/1999/02/22-rdf-syntax-ns#"
   xmlns:svg="http://www.w3.org/2000/svg"
   xmlns="http://www.w3.org/2000/svg"
   xmlns:sodipodi="http://sodipodi.sourceforge.net/DTD/sodipodi-0.dtd"
   xmlns:inkscape="http://www.inkscape.org/namespaces/inkscape"
   width="48"
   height="48"
   viewBox="0 0 12.7 12.7"
   version="1.1"
   id="svg4"
   sodipodi:docname="viewnior.svg"
   inkscape:version="0.92.4 (5da689c313, 2019-01-14)">
  <metadata
     id="metadata10">
    <rdf:RDF>
      <cc:Work
         rdf:about="">
        <dc:format>image/svg+xml</dc:format>
        <dc:type
           rdf:resource="http://purl.org/dc/dcmitype/StillImage" />
        <dc:title></dc:title>
      </cc:Work>
    </rdf:RDF>
  </metadata>
  <defs
     id="defs8" />
  <sodipodi:namedview
     pagecolor="#ffffff"
     bordercolor="#666666"
     borderopacity="1"
     objecttolerance="10"
     gridtolerance="10"
     guidetolerance="10"
     inkscape:pageopacity="0"
     inkscape:pageshadow="2"
     inkscape:window-width="1087"
     inkscape:window-height="480"
     id="namedview6"
     showgrid="false"
     inkscape:zoom="4.9166667"
     inkscape:cx="2.1355932"
     inkscape:cy="24"
     inkscape:window-x="0"
     inkscape:window-y="25"
     inkscape:window-maximized="0"
     inkscape:current-layer="svg4" />
  <path
     d="m 6.344,0.073 a 6.29,6.29 0 0 0 -6.29,6.29 6.29,6.29 0 0 0 6.29,6.288 6.29,6.29 0 0 0 6.29,-6.289 6.29,6.29 0 0 0 -6.29,-6.29 z M 6.326,1.009 A 5.407,5.407 0 0 1 11.733,6.416 5.407,5.407 0 0 1 6.326,11.823 5.407,5.407 0 0 1 0.92,6.416 5.407,5.407 0 0 1 6.326,1.01 Z M 3.12,2.81 v 10e-4 c -0.212,0 -0.36,0.002 -0.378,0.004 -0.038,0.007 -0.05,0.016 -0.05,0.041 0,0.036 2.256,8.025 2.279,8.069 0.013,0.025 0.088,0.026 1.323,0.023 L 7.604,10.945 7.949,9.792 A 0.55,0.55 0 0 1 7.772,9.104 0.55,0.55 0 0 1 7.947,8.21 V 8.194 A 0.55,0.55 0 0 1 8.359,7.662 0.554,0.554 0 0 1 8.655,7.44 L 8.818,6.897 C 9.984,3.009 10.03,2.849 10.002,2.829 9.978,2.811 9.793,2.809 8.863,2.812 8.253,2.813 7.748,2.822 7.743,2.826 7.737,2.831 7.413,4.036 7.023,5.506 6.633,6.973 6.311,8.18 6.307,8.183 6.303,8.187 6.295,8.17 6.289,8.146 L 5.634,5.47 C 5.28,4.023 4.984,2.83 4.978,2.826 4.968,2.814 3.756,2.808 3.12,2.809 Z"
     id="path2"
     inkscape:connector-curvature="0"
     style="fill:#1a1a1a" />
</svg>
